Icons/mobi_infolife_appbackup_NewAppBackupActivity.svg

<svg viewBox="0 0 48 48" xmlns:xlink="http://www.w3.org/1999/xlink">
 <defs>
  <linearGradient id="0">
   <stop stop-opacity="0"/>
   <stop offset="1"/>
  </linearGradient>
  <linearGradient xlink:href="#0" id="1" gradientUnits="userSpaceOnUse" gradientTransform="translate(4e-7,-48)" y1="47" x2="0" y2="1"/>
  <clipPath id="2">
   <g transform="translate(0,-1004.3622)">
    <rect rx="4" y="1005.36" x="1" height="46" width="46" fill="#1890d0"/>
   </g>
  </clipPath>
  <clipPath id="3">
   <g transform="translate(0,-1004.3622)">
    <rect rx="4" y="1005.36" x="1" height="46" width="46" fill="#1890d0"/>
   </g>
  </clipPath>
 </defs>
 <g>
  <g transform="translate(0,-1004.3622)">
   <path d="m 5,1006.3622 c -2.216,0 -4,1.784 -4,4 l 0,37.25 c 0,2.216 1.784,4 4,4 l 38,0 c 2.216,0 4,-1.784 4,-4 l 0,-37.25 c 0,-2.216 -1.784,-4 -4,-4 l -38,0 z m -4,41.5 0,0.5 c 0,2.216 1.784,4 4,4 l 38,0 c 2.216,0 4,-1.784 4,-4 l 0,-0.5 c 0,2.216 -1.784,4 -4,4 l -38,0 c -2.216,0 -4,-1.784 -4,-4 z" opacity="0.02"/>
   <path d="m 1,1047.6122 0,0.25 c 0,2.216 1.784,4 4,4 l 38,0 c 2.216,0 4,-1.784 4,-4 l 0,-0.25 c 0,2.216 -1.784,4 -4,4 l -38,0 c -2.216,0 -4,-1.784 -4,-4 z" opacity="0.05"/>
   <rect width="46" height="46" x="1" y="1005.61" rx="4" opacity="0.1"/>
  </g>
 </g>
 <g>
  <g transform="translate(0,-1004.3622)">
   <rect rx="4" y="1005.36" x="1" height="46" width="46" fill="#3e6478"/>
  </g>
 </g>
 <g>
  <rect transform="scale(1,-1)" width="46" height="46" x="1" y="-46.998" rx="4" opacity="0.1" fill="url(#1)"/>
 </g>
 <g>
  <g clip-path="url(#2)">
   <g opacity="0.1">
    <g>
     <path d="M 24.144531 30.414062 L 27.570312 30.414062 L 25.855469 32.128906 Z M 24.144531 30.414062 " fill-opacity="0.102" id="4"/>
     <path d="M 30.382812 25.269531 C 27.671875 25.269531 25.457031 27.574219 25.457031 30.414062 L 26.554688 30.414062 C 26.554688 29.726562 26.746094 29.101562 27.035156 28.539062 L 27.0625 28.566406 C 28.164062 26.660156 30.515625 25.976562 32.339844 27.011719 C 32.347656 27.015625 32.359375 27.007812 32.367188 27.011719 C 32.410156 27.039062 32.457031 27.0625 32.5 27.09375 C 32.675781 27.203125 32.832031 27.332031 32.980469 27.46875 C 33.019531 27.5 33.054688 27.539062 33.089844 27.574219 C 33.105469 27.59375 33.125 27.609375 33.144531 27.628906 C 33.804688 28.347656 34.1875 29.335938 34.1875 30.414062 C 34.1875 30.679688 34.15625 30.9375 34.105469 31.191406 C 34.105469 31.199219 34.109375 31.207031 34.105469 31.21875 C 34.074219 31.359375 34.046875 31.507812 34 31.644531 C 33.988281 31.683594 33.960938 31.714844 33.945312 31.753906 C 33.867188 31.964844 33.796875 32.167969 33.679688 32.371094 C 33.125 33.324219 32.253906 33.988281 31.292969 34.269531 C 31.132812 34.320312 30.953125 34.324219 30.785156 34.351562 C 30.648438 34.367188 30.527344 34.40625 30.382812 34.40625 C 29.691406 34.441406 28.984375 34.289062 28.347656 33.921875 L 27.785156 34.914062 C 28.601562 35.386719 29.496094 35.574219 30.382812 35.53125 L 30.382812 35.558594 C 32.574219 35.558594 34.414062 34.042969 35.042969 31.96875 C 35.082031 31.839844 35.121094 31.722656 35.152344 31.59375 C 35.160156 31.554688 35.171875 31.523438 35.179688 31.484375 C 35.179688 31.476562 35.175781 31.46875 35.179688 31.457031 C 35.65625 29.417969 34.878906 27.289062 33.117188 26.15625 C 33.054688 26.109375 32.992188 26.0625 32.929688 26.019531 C 32.855469 25.980469 32.789062 25.925781 32.714844 25.886719 C 32.636719 25.84375 32.550781 25.820312 32.472656 25.78125 C 31.835938 25.460938 31.136719 25.269531 30.382812 25.269531 Z M 30.382812 25.269531 " fill-rule="evenodd" fill-opacity="0.102" id="5"/>
     <path d="M 30.125 27.5 C 29.820312 27.503906 29.578125 27.71875 29.582031 27.980469 L 29.582031 30.585938 C 29.582031 30.695312 29.628906 30.800781 29.710938 30.886719 L 31.089844 32.308594 C 31.210938 32.449219 31.414062 32.519531 31.617188 32.496094 C 31.820312 32.46875 31.984375 32.347656 32.054688 32.179688 C 32.121094 32.015625 32.074219 31.828125 31.933594 31.703125 L 30.683594 30.414062 L 30.683594 27.980469 C 30.6875 27.851562 30.628906 27.730469 30.523438 27.636719 C 30.417969 27.546875 30.273438 27.496094 30.125 27.5 Z M 30.125 27.5 " fill-opacity="0.102" id="6"/>
     <path d="M 18 19 L 30 19 C 30 23.222656 30 25.507812 30 30 L 18 30 Z M 18 19 "/>
     <path d="M 16 19 C 16.554688 19 17 18.785156 17 21 C 17 22.179688 17 27 17 27 L 15 27 C 15 27 15 23.214844 15 21 C 15 18.785156 15.445312 19 16 19 Z M 16 19 "/>
     <path d="M 32 19 C 32.554688 19 33 18.785156 33 21 C 33 22.179688 33 27 33 27 L 31 27 C 31 27 31 23.214844 31 21 C 31 18.785156 31.445312 19 32 19 Z M 32 19 "/>
     <path d="M 18.25 11.441406 L 17.90625 11.628906 L 19.75 14.847656 C 18.664062 15.933594 18 16.34375 18 18 L 30 18 C 30 16.3125 29.308594 15.875 28.1875 14.785156 L 30 11.628906 L 29.65625 11.441406 L 27.875 14.535156 C 26.828125 13.648438 25.480469 13.097656 24 13.097656 C 22.496094 13.097656 21.117188 13.652344 20.0625 14.566406 Z M 21.3125 15.65625 C 21.507812 15.65625 21.6875 15.835938 21.6875 16.03125 C 21.6875 16.226562 21.507812 16.34375 21.3125 16.34375 C 21.117188 16.34375 21 16.226562 21 16.03125 C 21 15.835938 21.117188 15.65625 21.3125 15.65625 Z M 26.6875 15.65625 C 26.882812 15.65625 27 15.835938 27 16.03125 C 27 16.226562 26.882812 16.34375 26.6875 16.34375 C 26.492188 16.34375 26.3125 16.226562 26.3125 16.03125 C 26.3125 15.835938 26.492188 15.65625 26.6875 15.65625 Z M 26.6875 15.65625 "/>
     <path d="M 12 24.855469 L 12.855469 35.144531 C 12.855469 35.144531 12.855469 36 14.570312 36 L 33.429688 36 C 33.429688 36 35.144531 36 35.144531 35.144531 L 36 22.285156 C 36 20.570312 36 20.570312 35.144531 20.570312 L 29.144531 20.570312 C 28.285156 20.570312 27.429688 21.429688 27.429688 21.429688 L 24.855469 23.144531 C 24.855469 23.144531 23.144531 24 22.285156 24 L 12.855469 23.144531 C 12.855469 23.144531 12 23.144531 12 24.855469 Z M 12 24.855469 "/>
     <path d="M 23.144531 29.414062 L 26.570312 29.414062 L 24.855469 31.128906 Z M 23.144531 29.414062 "/>
     <path d="M 29.382812 24.269531 C 26.671875 24.269531 24.457031 26.574219 24.457031 29.414062 L 25.554688 29.414062 C 25.554688 28.726562 25.746094 28.101562 26.035156 27.539062 L 26.0625 27.566406 C 27.164062 25.660156 29.515625 24.976562 31.339844 26.011719 C 31.347656 26.015625 31.359375 26.007812 31.367188 26.011719 C 31.410156 26.039062 31.457031 26.0625 31.5 26.09375 C 31.675781 26.203125 31.832031 26.332031 31.980469 26.46875 C 32.019531 26.5 32.054688 26.539062 32.089844 26.574219 C 32.105469 26.59375 32.125 26.609375 32.144531 26.628906 C 32.804688 27.347656 33.1875 28.335938 33.1875 29.414062 C 33.1875 29.679688 33.15625 29.9375 33.105469 30.191406 C 33.105469 30.199219 33.109375 30.207031 33.105469 30.21875 C 33.074219 30.359375 33.046875 30.507812 33 30.644531 C 32.988281 30.683594 32.960938 30.714844 32.945312 30.753906 C 32.867188 30.964844 32.796875 31.167969 32.679688 31.371094 C 32.125 32.324219 31.253906 32.988281 30.292969 33.269531 C 30.132812 33.320312 29.953125 33.324219 29.785156 33.351562 C 29.648438 33.367188 29.527344 33.40625 29.382812 33.40625 C 28.691406 33.441406 27.984375 33.289062 27.347656 32.921875 L 26.785156 33.914062 C 27.601562 34.386719 28.496094 34.574219 29.382812 34.53125 L 29.382812 34.558594 C 31.574219 34.558594 33.414062 33.042969 34.042969 30.96875 C 34.082031 30.839844 34.121094 30.722656 34.152344 30.59375 C 34.160156 30.554688 34.171875 30.523438 34.179688 30.484375 C 34.179688 30.476562 34.175781 30.46875 34.179688 30.457031 C 34.65625 28.417969 33.878906 26.289062 32.117188 25.15625 C 32.054688 25.109375 31.992188 25.0625 31.929688 25.019531 C 31.855469 24.980469 31.789062 24.925781 31.714844 24.886719 C 31.636719 24.84375 31.550781 24.820312 31.472656 24.78125 C 30.835938 24.460938 30.136719 24.269531 29.382812 24.269531 Z M 29.382812 24.269531 " fill-rule="evenodd"/>
     <path d="M 29.125 26.5 C 28.820312 26.503906 28.578125 26.71875 28.582031 26.980469 L 28.582031 29.585938 C 28.582031 29.695312 28.628906 29.800781 28.710938 29.886719 L 30.089844 31.308594 C 30.210938 31.449219 30.414062 31.519531 30.617188 31.496094 C 30.820312 31.46875 30.984375 31.347656 31.054688 31.179688 C 31.121094 31.015625 31.074219 30.828125 30.933594 30.703125 L 29.683594 29.414062 L 29.683594 26.980469 C 29.6875 26.851562 29.628906 26.730469 29.523438 26.636719 C 29.417969 26.546875 29.273438 26.496094 29.125 26.5 Z M 29.125 26.5 "/>
    </g>
   </g>
  </g>
 </g>
 <g>
  <g clip-path="url(#3)">
   <g transform="translate(0,-1)">
    <g>
     <use xlink:href="#4"/>
     <use xlink:href="#5"/>
     <use xlink:href="#6"/>
     <path d="M 18 19 L 30 19 C 30 23.222656 30 25.507812 30 30 L 18 30 Z M 18 19 " fill="#85b220"/>
     <path d="M 16 19 C 16.554688 19 17 18.785156 17 21 C 17 22.179688 17 27 17 27 L 15 27 C 15 27 15 23.214844 15 21 C 15 18.785156 15.445312 19 16 19 Z M 16 19 " fill="#85b220"/>
     <path d="M 32 19 C 32.554688 19 33 18.785156 33 21 C 33 22.179688 33 27 33 27 L 31 27 C 31 27 31 23.214844 31 21 C 31 18.785156 31.445312 19 32 19 Z M 32 19 " fill="#85b220"/>
     <path d="M 18.25 11.441406 L 17.90625 11.628906 L 19.75 14.847656 C 18.664062 15.933594 18 16.34375 18 18 L 30 18 C 30 16.3125 29.308594 15.875 28.1875 14.785156 L 30 11.628906 L 29.65625 11.441406 L 27.875 14.535156 C 26.828125 13.648438 25.480469 13.097656 24 13.097656 C 22.496094 13.097656 21.117188 13.652344 20.0625 14.566406 Z M 21.3125 15.65625 C 21.507812 15.65625 21.6875 15.835938 21.6875 16.03125 C 21.6875 16.226562 21.507812 16.34375 21.3125 16.34375 C 21.117188 16.34375 21 16.226562 21 16.03125 C 21 15.835938 21.117188 15.65625 21.3125 15.65625 Z M 26.6875 15.65625 C 26.882812 15.65625 27 15.835938 27 16.03125 C 27 16.226562 26.882812 16.34375 26.6875 16.34375 C 26.492188 16.34375 26.3125 16.226562 26.3125 16.03125 C 26.3125 15.835938 26.492188 15.65625 26.6875 15.65625 Z M 26.6875 15.65625 " fill="#85b220"/>
     <path d="M 12 24.855469 L 12.855469 35.144531 C 12.855469 35.144531 12.855469 36 14.570312 36 L 33.429688 36 C 33.429688 36 35.144531 36 35.144531 35.144531 L 36 22.285156 C 36 20.570312 36 20.570312 35.144531 20.570312 L 29.144531 20.570312 C 28.285156 20.570312 27.429688 21.429688 27.429688 21.429688 L 24.855469 23.144531 C 24.855469 23.144531 23.144531 24 22.285156 24 L 12.855469 23.144531 C 12.855469 23.144531 12 23.144531 12 24.855469 Z M 12 24.855469 " fill="#78a8c1"/>
     <path d="M 23.144531 29.414062 L 26.570312 29.414062 L 24.855469 31.128906 Z M 23.144531 29.414062 " fill="#ffffff"/>
     <path d="M 29.382812 24.269531 C 26.671875 24.269531 24.457031 26.574219 24.457031 29.414062 L 25.554688 29.414062 C 25.554688 28.726562 25.746094 28.101562 26.035156 27.539062 L 26.0625 27.566406 C 27.164062 25.660156 29.515625 24.976562 31.339844 26.011719 C 31.347656 26.015625 31.359375 26.007812 31.367188 26.011719 C 31.410156 26.039062 31.457031 26.0625 31.5 26.09375 C 31.675781 26.203125 31.832031 26.332031 31.980469 26.46875 C 32.019531 26.5 32.054688 26.539062 32.089844 26.574219 C 32.105469 26.59375 32.125 26.609375 32.144531 26.628906 C 32.804688 27.347656 33.1875 28.335938 33.1875 29.414062 C 33.1875 29.679688 33.15625 29.9375 33.105469 30.191406 C 33.105469 30.199219 33.109375 30.207031 33.105469 30.21875 C 33.074219 30.359375 33.046875 30.507812 33 30.644531 C 32.988281 30.683594 32.960938 30.714844 32.945312 30.753906 C 32.867188 30.964844 32.796875 31.167969 32.679688 31.371094 C 32.125 32.324219 31.253906 32.988281 30.292969 33.269531 C 30.132812 33.320312 29.953125 33.324219 29.785156 33.351562 C 29.648438 33.367188 29.527344 33.40625 29.382812 33.40625 C 28.691406 33.441406 27.984375 33.289062 27.347656 32.921875 L 26.785156 33.914062 C 27.601562 34.386719 28.496094 34.574219 29.382812 34.53125 L 29.382812 34.558594 C 31.574219 34.558594 33.414062 33.042969 34.042969 30.96875 C 34.082031 30.839844 34.121094 30.722656 34.152344 30.59375 C 34.160156 30.554688 34.171875 30.523438 34.179688 30.484375 C 34.179688 30.476562 34.175781 30.46875 34.179688 30.457031 C 34.65625 28.417969 33.878906 26.289062 32.117188 25.15625 C 32.054688 25.109375 31.992188 25.0625 31.929688 25.019531 C 31.855469 24.980469 31.789062 24.925781 31.714844 24.886719 C 31.636719 24.84375 31.550781 24.820312 31.472656 24.78125 C 30.835938 24.460938 30.136719 24.269531 29.382812 24.269531 Z M 29.382812 24.269531 " fill="#ffffff" fill-rule="evenodd"/>
     <path d="M 29.125 26.5 C 28.820312 26.503906 28.578125 26.71875 28.582031 26.980469 L 28.582031 29.585938 C 28.582031 29.695312 28.628906 29.800781 28.710938 29.886719 L 30.089844 31.308594 C 30.210938 31.449219 30.414062 31.519531 30.617188 31.496094 C 30.820312 31.46875 30.984375 31.347656 31.054688 31.179688 C 31.121094 31.015625 31.074219 30.828125 30.933594 30.703125 L 29.683594 29.414062 L 29.683594 26.980469 C 29.6875 26.851562 29.628906 26.730469 29.523438 26.636719 C 29.417969 26.546875 29.273438 26.496094 29.125 26.5 Z M 29.125 26.5 " fill="#ffffff"/>
    </g>
   </g>
  </g>
 </g>
 <g>
  <g transform="translate(0,-1004.3622)">
   <path d="m 1,1043.3622 0,4 c 0,2.216 1.784,4 4,4 l 38,0 c 2.216,0 4,-1.784 4,-4 l 0,-4 c 0,2.216 -1.784,4 -4,4 l -38,0 c -2.216,0 -4,-1.784 -4,-4 z" opacity="0.1"/>
  </g>
 </g>
</svg>

<svg viewBox="0 0 48 48" xmlns:xlink="http://www.w3.org/1999/xlink"><defs><linearGradient id="linearGradient3764" x1="1" x2="47" gradientUnits="userSpaceOnUse" gradientTransform="translate(-48.000001,0.00221467)"><stop stop-color="#37596b" stop-opacity="1"/><stop offset="1" stop-color="#3e6478" stop-opacity="1"/></linearGradient><clipPath id="clipPath-102480869"><g transform="translate(0,-1004.3622)"><rect rx="4" y="1005.36" x="1" height="46" width="46" fill="#1890d0"/></g></clipPath><clipPath id="clipPath-117280277"><g transform="translate(0,-1004.3622)"><rect rx="4" y="1005.36" x="1" height="46" width="46" fill="#1890d0"/></g></clipPath></defs><g><path d="m 1 43 l 0 0.25 c 0 2.216 1.784 4 4 4 l 38 0 c 2.216 0 4 -1.784 4 -4 l 0 -0.25 c 0 2.216 -1.784 4 -4 4 l -38 0 c -2.216 0 -4 -1.784 -4 -4 z m 0 0.5 l 0 0.5 c 0 2.216 1.784 4 4 4 l 38 0 c 2.216 0 4 -1.784 4 -4 l 0 -0.5 c 0 2.216 -1.784 4 -4 4 l -38 0 c -2.216 0 -4 -1.784 -4 -4 z" opacity="0.02"/><path d="m 1 43.25 l 0 0.25 c 0 2.216 1.784 4 4 4 l 38 0 c 2.216 0 4 -1.784 4 -4 l 0 -0.25 c 0 2.216 -1.784 4 -4 4 l -38 0 c -2.216 0 -4 -1.784 -4 -4 z" opacity="0.05"/><path d="m 1 43 l 0 0.25 c 0 2.216 1.784 4 4 4 l 38 0 c 2.216 0 4 -1.784 4 -4 l 0 -0.25 c 0 2.216 -1.784 4 -4 4 l -38 0 c -2.216 0 -4 -1.784 -4 -4 z" opacity="0.1"/></g><g><rect width="46" height="46" x="-47" y="1" rx="4" transform="matrix(0,-1,1,0,0,0)" fill="url(#linearGradient3764)" fill-opacity="1"/></g><g><g clip-path="url(#clipPath-102480869)"><g opacity="0.1"><!-- color: #3e6478 --><g><path d="m 24.14 30.414 l 3.426 0 l -1.715 1.715 m -1.711 -1.715" fill-opacity="0.102" id="SVGCleanerId_0"/><path d="m 30.383 25.27 c -2.711 0 -4.926 2.305 -4.926 5.145 l 1.098 0 c 0 -0.688 0.191 -1.313 0.48 -1.875 l 0.027 0.027 c 1.102 -1.906 3.453 -2.59 5.277 -1.555 c 0.008 0.004 0.02 -0.004 0.027 0 c 0.043 0.027 0.09 0.051 0.133 0.082 c 0.176 0.109 0.332 0.238 0.48 0.375 c 0.039 0.031 0.074 0.07 0.109 0.105 c 0.016 0.02 0.035 0.035 0.055 0.055 c 0.66 0.719 1.043 1.707 1.043 2.785 c 0 0.266 -0.031 0.523 -0.082 0.777 c 0 0.008 0.004 0.016 0 0.027 c -0.031 0.141 -0.059 0.289 -0.105 0.426 c -0.012 0.039 -0.039 0.07 -0.055 0.109 c -0.078 0.211 -0.148 0.414 -0.266 0.617 c -0.555 0.953 -1.426 1.617 -2.387 1.898 c -0.16 0.051 -0.34 0.055 -0.508 0.082 c -0.137 0.016 -0.258 0.055 -0.402 0.055 c -0.691 0.035 -1.398 -0.117 -2.035 -0.484 l -0.563 0.992 c 0.816 0.473 1.711 0.66 2.598 0.617 l 0 0.027 c 2.191 0 4.03 -1.516 4.66 -3.59 c 0.039 -0.129 0.078 -0.246 0.109 -0.375 c 0.008 -0.039 0.02 -0.07 0.027 -0.109 c 0 -0.008 -0.004 -0.016 0 -0.027 c 0.477 -2.039 -0.301 -4.168 -2.063 -5.301 c -0.063 -0.047 -0.125 -0.094 -0.188 -0.137 c -0.074 -0.039 -0.141 -0.094 -0.215 -0.133 c -0.078 -0.043 -0.164 -0.066 -0.242 -0.105 c -0.637 -0.32 -1.336 -0.512 -2.09 -0.512 m 0 0" fill-rule="evenodd" fill-opacity="0.102" id="SVGCleanerId_1"/><path d="m 30.13 27.5 c -0.305 0.004 -0.547 0.219 -0.543 0.48 l 0 2.605 c 0 0.109 0.047 0.215 0.129 0.301 l 1.379 1.422 c 0.121 0.141 0.324 0.211 0.527 0.188 c 0.203 -0.027 0.367 -0.148 0.438 -0.316 c 0.066 -0.164 0.02 -0.352 -0.121 -0.477 l -1.25 -1.289 l 0 -2.434 c 0.004 -0.129 -0.055 -0.25 -0.16 -0.344 c -0.105 -0.09 -0.25 -0.141 -0.398 -0.137 m 0 0" fill-opacity="0.102" id="SVGCleanerId_2"/><path d="m 18 19 l 12 0 c 0 4.223 0 6.508 0 11 l -12 0 m 0 -11" fill="#000"/><path d="m 16 19 c 0.555 0 1 -0.215 1 2 c 0 1.18 0 6 0 6 l -2 0 c 0 0 0 -3.785 0 -6 c 0 -2.215 0.445 -2 1 -2 m 0 0" fill="#000"/><path d="m 32 19 c 0.555 0 1 -0.215 1 2 c 0 1.18 0 6 0 6 l -2 0 c 0 0 0 -3.785 0 -6 c 0 -2.215 0.445 -2 1 -2 m 0 0" fill="#000"/><path d="m 18.25 11.441 l -0.344 0.188 l 1.844 3.219 c -1.086 1.086 -1.75 1.496 -1.75 3.152 l 12 0 c 0 -1.688 -0.691 -2.125 -1.813 -3.215 l 1.813 -3.156 l -0.344 -0.188 l -1.781 3.094 c -1.047 -0.887 -2.395 -1.438 -3.875 -1.438 c -1.504 0 -2.883 0.555 -3.938 1.469 m 1.25 1.09 c 0.195 0 0.375 0.18 0.375 0.375 c 0 0.195 -0.18 0.313 -0.375 0.313 c -0.195 0 -0.313 -0.117 -0.313 -0.313 c 0 -0.195 0.117 -0.375 0.313 -0.375 m 5.375 0 c 0.195 0 0.313 0.18 0.313 0.375 c 0 0.195 -0.117 0.313 -0.313 0.313 c -0.195 0 -0.375 -0.117 -0.375 -0.313 c 0 -0.195 0.18 -0.375 0.375 -0.375 m 0 0" fill="#000"/><path d="m 12 24.855 l 0.855 10.289 c 0 0 0 0.855 1.715 0.855 l 18.859 0 c 0 0 1.715 0 1.715 -0.855 l 0.855 -12.859 c 0 -1.715 0 -1.715 -0.855 -1.715 l -6 0 c -0.859 0 -1.715 0.859 -1.715 0.859 l -2.574 1.715 c 0 0 -1.711 0.855 -2.57 0.855 l -9.43 -0.855 c 0 0 -0.855 0 -0.855 1.711 m 0 0" fill="#000"/><path d="m 23.14 29.414 l 3.426 0 l -1.715 1.715 m -1.711 -1.715" fill="#000"/><path d="m 29.383 24.27 c -2.711 0 -4.926 2.305 -4.926 5.145 l 1.098 0 c 0 -0.688 0.191 -1.313 0.48 -1.875 l 0.027 0.027 c 1.102 -1.906 3.453 -2.59 5.277 -1.555 c 0.008 0.004 0.02 -0.004 0.027 0 c 0.043 0.027 0.09 0.051 0.133 0.082 c 0.176 0.109 0.332 0.238 0.48 0.375 c 0.039 0.031 0.074 0.07 0.109 0.105 c 0.016 0.02 0.035 0.035 0.055 0.055 c 0.66 0.719 1.043 1.707 1.043 2.785 c 0 0.266 -0.031 0.523 -0.082 0.777 c 0 0.008 0.004 0.016 0 0.027 c -0.031 0.141 -0.059 0.289 -0.105 0.426 c -0.012 0.039 -0.039 0.07 -0.055 0.109 c -0.078 0.211 -0.148 0.414 -0.266 0.617 c -0.555 0.953 -1.426 1.617 -2.387 1.898 c -0.16 0.051 -0.34 0.055 -0.508 0.082 c -0.137 0.016 -0.258 0.055 -0.402 0.055 c -0.691 0.035 -1.398 -0.117 -2.035 -0.484 l -0.563 0.992 c 0.816 0.473 1.711 0.66 2.598 0.617 l 0 0.027 c 2.191 0 4.03 -1.516 4.66 -3.59 c 0.039 -0.129 0.078 -0.246 0.109 -0.375 c 0.008 -0.039 0.02 -0.07 0.027 -0.109 c 0 -0.008 -0.004 -0.016 0 -0.027 c 0.477 -2.039 -0.301 -4.168 -2.063 -5.301 c -0.063 -0.047 -0.125 -0.094 -0.188 -0.137 c -0.074 -0.039 -0.141 -0.094 -0.215 -0.133 c -0.078 -0.043 -0.164 -0.066 -0.242 -0.105 c -0.637 -0.32 -1.336 -0.512 -2.09 -0.512 m 0 0" fill-rule="evenodd" fill="#000"/><path d="m 29.13 26.5 c -0.305 0.004 -0.547 0.219 -0.543 0.48 l 0 2.605 c 0 0.109 0.047 0.215 0.129 0.301 l 1.379 1.422 c 0.121 0.141 0.324 0.211 0.527 0.188 c 0.203 -0.027 0.367 -0.148 0.438 -0.316 c 0.066 -0.164 0.02 -0.352 -0.121 -0.477 l -1.25 -1.289 l 0 -2.434 c 0.004 -0.129 -0.055 -0.25 -0.16 -0.344 c -0.105 -0.09 -0.25 -0.141 -0.398 -0.137 m 0 0" fill="#000"/></g></g></g></g><g><g clip-path="url(#clipPath-117280277)"><g transform="translate(0,-1)"><!-- color: #3e6478 --><g><use xlink:href="#SVGCleanerId_0"/><use xlink:href="#SVGCleanerId_1"/><use xlink:href="#SVGCleanerId_2"/><path d="m 18 19 l 12 0 c 0 4.223 0 6.508 0 11 l -12 0 m 0 -11" fill="#85b220"/><path d="m 16 19 c 0.555 0 1 -0.215 1 2 c 0 1.18 0 6 0 6 l -2 0 c 0 0 0 -3.785 0 -6 c 0 -2.215 0.445 -2 1 -2 m 0 0" fill="#85b220"/><path d="m 32 19 c 0.555 0 1 -0.215 1 2 c 0 1.18 0 6 0 6 l -2 0 c 0 0 0 -3.785 0 -6 c 0 -2.215 0.445 -2 1 -2 m 0 0" fill="#85b220"/><path d="m 18.25 11.441 l -0.344 0.188 l 1.844 3.219 c -1.086 1.086 -1.75 1.496 -1.75 3.152 l 12 0 c 0 -1.688 -0.691 -2.125 -1.813 -3.215 l 1.813 -3.156 l -0.344 -0.188 l -1.781 3.094 c -1.047 -0.887 -2.395 -1.438 -3.875 -1.438 c -1.504 0 -2.883 0.555 -3.938 1.469 m 1.25 1.09 c 0.195 0 0.375 0.18 0.375 0.375 c 0 0.195 -0.18 0.313 -0.375 0.313 c -0.195 0 -0.313 -0.117 -0.313 -0.313 c 0 -0.195 0.117 -0.375 0.313 -0.375 m 5.375 0 c 0.195 0 0.313 0.18 0.313 0.375 c 0 0.195 -0.117 0.313 -0.313 0.313 c -0.195 0 -0.375 -0.117 -0.375 -0.313 c 0 -0.195 0.18 -0.375 0.375 -0.375 m 0 0" fill="#85b220"/><path d="m 12 24.855 l 0.855 10.289 c 0 0 0 0.855 1.715 0.855 l 18.859 0 c 0 0 1.715 0 1.715 -0.855 l 0.855 -12.859 c 0 -1.715 0 -1.715 -0.855 -1.715 l -6 0 c -0.859 0 -1.715 0.859 -1.715 0.859 l -2.574 1.715 c 0 0 -1.711 0.855 -2.57 0.855 l -9.43 -0.855 c 0 0 -0.855 0 -0.855 1.711 m 0 0" fill="#78a8c1"/><path d="m 23.14 29.414 l 3.426 0 l -1.715 1.715 m -1.711 -1.715" fill="#fff"/><path d="m 29.383 24.27 c -2.711 0 -4.926 2.305 -4.926 5.145 l 1.098 0 c 0 -0.688 0.191 -1.313 0.48 -1.875 l 0.027 0.027 c 1.102 -1.906 3.453 -2.59 5.277 -1.555 c 0.008 0.004 0.02 -0.004 0.027 0 c 0.043 0.027 0.09 0.051 0.133 0.082 c 0.176 0.109 0.332 0.238 0.48 0.375 c 0.039 0.031 0.074 0.07 0.109 0.105 c 0.016 0.02 0.035 0.035 0.055 0.055 c 0.66 0.719 1.043 1.707 1.043 2.785 c 0 0.266 -0.031 0.523 -0.082 0.777 c 0 0.008 0.004 0.016 0 0.027 c -0.031 0.141 -0.059 0.289 -0.105 0.426 c -0.012 0.039 -0.039 0.07 -0.055 0.109 c -0.078 0.211 -0.148 0.414 -0.266 0.617 c -0.555 0.953 -1.426 1.617 -2.387 1.898 c -0.16 0.051 -0.34 0.055 -0.508 0.082 c -0.137 0.016 -0.258 0.055 -0.402 0.055 c -0.691 0.035 -1.398 -0.117 -2.035 -0.484 l -0.563 0.992 c 0.816 0.473 1.711 0.66 2.598 0.617 l 0 0.027 c 2.191 0 4.03 -1.516 4.66 -3.59 c 0.039 -0.129 0.078 -0.246 0.109 -0.375 c 0.008 -0.039 0.02 -0.07 0.027 -0.109 c 0 -0.008 -0.004 -0.016 0 -0.027 c 0.477 -2.039 -0.301 -4.168 -2.063 -5.301 c -0.063 -0.047 -0.125 -0.094 -0.188 -0.137 c -0.074 -0.039 -0.141 -0.094 -0.215 -0.133 c -0.078 -0.043 -0.164 -0.066 -0.242 -0.105 c -0.637 -0.32 -1.336 -0.512 -2.09 -0.512 m 0 0" fill="#fff" fill-rule="evenodd"/><path d="m 29.13 26.5 c -0.305 0.004 -0.547 0.219 -0.543 0.48 l 0 2.605 c 0 0.109 0.047 0.215 0.129 0.301 l 1.379 1.422 c 0.121 0.141 0.324 0.211 0.527 0.188 c 0.203 -0.027 0.367 -0.148 0.438 -0.316 c 0.066 -0.164 0.02 -0.352 -0.121 -0.477 l -1.25 -1.289 l 0 -2.434 c 0.004 -0.129 -0.055 -0.25 -0.16 -0.344 c -0.105 -0.09 -0.25 -0.141 -0.398 -0.137 m 0 0" fill="#fff"/></g></g></g></g><g><g transform="translate(0,-1004.3622)"><path d="m 1 1043.36 0 4 c 0 2.216 1.784 4 4 4 l 38 0 c 2.216 0 4 -1.784 4 -4 l 0 -4 c 0 2.216 -1.784 4 -4 4 l -38 0 c -2.216 0 -4 -1.784 -4 -4 z" opacity="0.1"/></g></g></svg>
